X: 156
T: No_89_I_Die_Here.krn
N: Derived from No_89_I_Die_Here.krn
%%abc-version 2.0
%%abcx-abcm2ps-target-version 5.9.1 (29 Sep 2008)
%%abc-creator hum2abc beta
%%abcx-conversion-date 2019/03/15 08:37:56
%%humdrum-veritas 1865706722
%%humdrum-veritas-data 2597987178
%%linebreak <none>
%%barnumbers 0
L: 1/8
M: 2/4
K: A clef=bass
[K:clef=bass][M:2/4]E,2CC ||  
[M:3/8]C2B, ||  
[M:2/4]B,A, (3A,A,A, | 
A,2E,E, | 
A,4 ]|:  
A,A, B,A, ||  
[M:3/8]A,2E, ||  
[M:2/4]F,E, (3E,E,E, | 
E,2E,E, ||  
[M:3/4]E,4A,A, ||  
[M:2/4]B,4 | 
(3B,B,B,A,2 | 
A,3E, ||  
[M:3/8]F,E,E, ||  
[M:2/4]E,3E, | 
E,E, C,E, | 
E,4 | 
E,/E,3/ F,E, ||  
[M:3/8]E,2C, ||  
[M:2/4]E,2(3E,E,E, | 
E,2C,C, | 
E,2E,2 :|]  



